assets/img/ods/SDG-3.svg

<svg width="720" height="720" viewBox="0 0 720 720" fill="none" xmlns="http://www.w3.org/2000/svg">
<g clip-path="url(#clip0_342_48)">
<path d="M-1.08008 -1.08H721.08V721.08H-1.08008V-1.08Z" fill="#BBBBBB"/>
<path d="M54.6099 160.16V155.4H80.7899V160C80.9999 173.42 83.3399 179.71 91.9999 179.71C100.84 179.71 102.71 172.91 102.71 159.82C102.71 146.05 99.4799 138.23 87.4099 137.89C85.8867 137.713 84.352 137.656 82.8199 137.72V118.51H86.8999C99.1399 118.51 102.71 112.22 102.71 98.11C102.71 87.11 100.16 80.77 91.4899 80.77C82.8199 80.77 80.9999 88.25 80.7899 99V105.12H54.6099V97.6C54.6099 73.46 68.2099 59.86 91.4999 59.86C114.96 59.86 128.56 72.78 128.56 96.75C128.56 112.9 121.08 124.12 111.22 126.84C121.22 130.58 128.56 139.76 128.56 159.31C128.56 184.31 118.56 201.81 91.6699 201.81C64.1299 201.81 54.6099 185.15 54.6099 160.16ZM187.66 98.94L195.92 97.31C196.18 103.55 197.67 107.58 201.92 107.58C204.92 107.58 206.27 105.5 206.27 102.64C206.27 98.09 203.93 95.56 200.49 92.57L193.86 86.78C190.09 83.53 187.75 79.89 187.75 74.04C187.75 65.72 192.95 61.04 201.33 61.04C211.21 61.04 214.01 67.67 214.53 75.34L206.27 76.77C206.08 71.83 205.36 68.13 201.14 68.13C198.28 68.13 196.72 70.27 196.72 73.07C196.72 76.64 198.21 78.59 201.01 81L207.57 86.78C211.86 90.49 215.44 95.1 215.44 102.06C215.44 109.66 210.11 114.99 202.24 114.99C192.6 115 188.05 109.4 187.66 98.94ZM228.35 61.63H238.62L249.15 114.28H240.25L238.17 102.12H229L226.86 114.28H217.86L228.35 61.63ZM237.13 96L233.55 73.9L230 96H237.13ZM253.44 97.25V61.63H262.8V98.35C262.8 103.35 263.39 107.84 268.26 107.84C273.13 107.84 273.79 103.36 273.79 98.35V61.63H283.08V97.25C283.08 108.25 280.03 114.99 268.26 114.99C256.49 114.99 253.44 108.3 253.44 97.25ZM269.56 45H278.56L270.8 58H265.66L269.56 45ZM290.3 61.63H302.71C315.52 61.63 319.42 66.76 319.42 78.01V97.18C319.42 108.75 315.42 114.28 303.1 114.28H290.3V61.63ZM302.84 107.58C309.41 107.58 309.67 104.07 309.67 97.51V77.36C309.67 71.05 309.02 68.45 302.67 68.45H299.81V107.58H302.84ZM326.18 61.63H348.28V68.39H335.73V83.53H345.61V90.23H335.73V107.71H348.41V114.28H326.18V61.63ZM369.14 61.63H391.24V68.39H378.7V83.53H388.58V90.23H378.7V107.71H391.37V114.28H369.14V61.63ZM189 147.63H202C211.23 147.63 217.41 150.75 217.41 161.15C217.41 167.58 214.74 171.15 209.8 171.94C215.98 173.11 218.9 177.53 218.9 184.94C218.9 195.01 213.96 200.28 204.21 200.28H189V147.63ZM201.87 169.14C207.59 169.14 209.09 166.61 209.09 161.28C209.09 155.69 206.36 154.28 200.51 154.28H198.56V169.1L201.87 169.14ZM202.26 193.52C208.11 193.52 209.74 190.79 209.74 184.87C209.74 178.63 207.66 175.77 201.94 175.77H198.56V193.52H202.26ZM224.84 147.63H246.94V154.39H234.4V169.53H244.28V176.23H234.4V193.71H247.07V200.28H224.84V147.63ZM253.12 147.63H263.06L270.54 184.09L278.27 147.63H288L289 200.28H281.85L281.07 163.68L273.6 200.28H267.81L260.21 163.55L259.49 200.28H252.28L253.12 147.63ZM296.15 176H311.81V182H296.15V176ZM319.16 147.63H341.26V154.39H328.71V169.53H338.59V176.23H328.71V193.71H341.39V200.28H319.16V147.63ZM345.35 184.94L353.61 183.31C353.87 189.55 355.36 193.58 359.61 193.58C362.66 193.58 363.96 191.5 363.96 188.64C363.96 184.09 361.62 181.56 358.18 178.57L351.55 172.78C347.78 169.53 345.44 165.89 345.44 160.04C345.44 151.72 350.64 147.04 359.02 147.04C368.9 147.04 371.7 153.67 372.22 161.34L363.96 162.77C363.77 157.83 363.05 154.13 358.83 154.13C355.97 154.13 354.41 156.27 354.41 159.07C354.41 162.64 355.9 164.59 358.7 167L365.26 172.78C369.55 176.49 373.13 181.1 373.13 188.06C373.13 195.66 367.8 200.99 359.93 200.99C350.29 201 345.74 195.4 345.35 184.94ZM383.7 154.71H375.32V147.63H401.51V154.71H393.32V200.28H383.7V154.71ZM412.56 147.63H422.83L433.36 200.28H424.46L422.38 188.12H413.21L411.07 200.28H402.07L412.56 147.63ZM421.34 182L417.76 159.9L414.19 182H421.34ZM438.3 147.63H451C461.53 147.63 467.51 151.01 467.51 161.63C467.51 167.94 465.95 172.36 461.01 174.37L468.35 200.31H458.73L452.43 176.19H447.88V200.31H438.3V147.63ZM450.91 170.18C456.44 170.18 458.45 167.78 458.45 162.12C458.45 156.79 456.96 154.19 451.45 154.19H447.88V170.19L450.91 170.18ZM603.67 450.66C603.67 430.25 590.57 413.66 570.73 413.66C560.81 413.66 548.84 424.52 542.35 431.2C535.85 424.51 524.67 413.64 514.75 413.64C494.91 413.64 481.01 430.19 481.01 450.64C480.973 460.394 484.752 469.775 491.54 476.78L542.39 527.73L593.17 476.84C599.954 469.819 603.722 460.423 603.67 450.66Z" fill="white"/>
<path d="M387.15 610.91H386.64C384.761 610.793 382.976 610.045 381.575 608.787C380.174 607.53 379.238 605.836 378.92 603.98L353.09 453.53L314 526.08C313.165 527.625 311.864 528.867 310.282 529.63C308.701 530.393 306.919 530.638 305.19 530.33C303.462 530.022 301.874 529.177 300.653 527.915C299.432 526.653 298.64 525.038 298.39 523.3L281.74 407.2L251.34 475.46C250.69 476.944 249.623 478.206 248.268 479.094C246.913 479.982 245.329 480.456 243.71 480.46H125.59C124.493 480.46 123.407 480.244 122.394 479.824C121.381 479.405 120.461 478.79 119.685 478.014C118.91 477.239 118.295 476.318 117.875 475.305C117.456 474.292 117.24 473.207 117.24 472.11C117.24 471.013 117.456 469.928 117.875 468.915C118.295 467.901 118.91 466.981 119.685 466.206C120.461 465.43 121.381 464.815 122.394 464.396C123.407 463.976 124.493 463.76 125.59 463.76H238.29L278.29 373.97C279.028 372.317 280.283 370.948 281.867 370.071C283.451 369.193 285.276 368.854 287.07 369.105C288.863 369.355 290.526 370.182 291.808 371.46C293.091 372.738 293.923 374.398 294.18 376.19L311.31 495.9L349.9 424.36C350.724 422.83 352.005 421.596 353.565 420.829C355.124 420.062 356.884 419.801 358.599 420.082C360.314 420.362 361.898 421.171 363.132 422.395C364.365 423.619 365.186 425.197 365.48 426.91L389.4 566.24L476.58 276.64C477.064 275.028 478.024 273.6 479.335 272.543C480.645 271.486 482.244 270.85 483.922 270.718C485.6 270.587 487.279 270.965 488.738 271.804C490.198 272.643 491.369 273.903 492.1 275.42L538 370.47C538.476 371.458 538.753 372.53 538.814 373.626C538.876 374.721 538.721 375.817 538.359 376.853C537.997 377.888 537.434 378.842 536.703 379.66C535.973 380.478 535.088 381.144 534.1 381.62C533.112 382.096 532.039 382.373 530.944 382.434C529.849 382.496 528.752 382.341 527.717 381.979C526.682 381.617 525.728 381.055 524.91 380.324C524.092 379.593 523.426 378.708 522.95 377.72L486.37 302L395.15 605C394.625 606.712 393.564 608.21 392.124 609.274C390.684 610.338 388.94 610.911 387.15 610.91Z" fill="white"/>
</g>
<defs>
<clipPath id="clip0_342_48">
<rect width="720" height="720" fill="white"/>
</clipPath>
</defs>
</svg>

<svg xmlns="http://www.w3.org/2000/svg" viewBox="0 0 720 720"><defs><style>.cls-2{fill:#fff}</style></defs><path fill="#4c9f38" d="M-1.08-1.08h722.16v722.16H-1.08z" id="goal_background" data-name="goal background"/><g id="ENG_text_graphics" data-name="ENG text &amp; graphics"><path class="cls-2" d="M54.61 160.16v-4.76h26.18v4.6c.21 13.42 2.55 19.71 11.21 19.71 8.84 0 10.71-6.8 10.71-19.89 0-13.77-3.23-21.59-15.3-21.93a29.18 29.18 0 00-4.59-.17v-19.21h4.08c12.24 0 15.81-6.29 15.81-20.4 0-11-2.55-17.34-11.22-17.34S81 88.25 80.79 99v6.12H54.61V97.6c0-24.14 13.6-37.74 36.89-37.74 23.46 0 37.06 12.92 37.06 36.89 0 16.15-7.48 27.37-17.34 30.09 10 3.74 17.34 12.92 17.34 32.47 0 25-10 42.5-36.89 42.5-27.54 0-37.06-16.66-37.06-41.65zM187.66 98.94l8.26-1.63c.26 6.24 1.75 10.27 6 10.27 3 0 4.35-2.08 4.35-4.94 0-4.55-2.34-7.08-5.78-10.07l-6.63-5.79c-3.77-3.25-6.11-6.89-6.11-12.74 0-8.32 5.2-13 13.58-13 9.88 0 12.68 6.63 13.2 14.3l-8.26 1.43c-.19-4.94-.91-8.64-5.13-8.64-2.86 0-4.42 2.14-4.42 4.94 0 3.57 1.49 5.52 4.29 7.93l6.56 5.78c4.29 3.71 7.87 8.32 7.87 15.28 0 7.6-5.33 12.93-13.2 12.93-9.64.01-14.19-5.59-14.58-16.05zM228.35 61.63h10.27l10.53 52.65h-8.9l-2.08-12.16H229l-2.14 12.16h-9zM237.13 96l-3.58-22.1L230 96zM253.44 97.25V61.63h9.36v36.72c0 5 .59 9.49 5.46 9.49s5.53-4.48 5.53-9.49V61.63h9.29v35.62c0 11-3.05 17.74-14.82 17.74s-14.82-6.69-14.82-17.74zM269.56 45h9l-7.76 13h-5.14zM290.3 61.63h12.41c12.81 0 16.71 5.13 16.71 16.38v19.17c0 11.57-4 17.1-16.32 17.1h-12.8zm12.54 45.95c6.57 0 6.83-3.51 6.83-10.07V77.36c0-6.31-.65-8.91-7-8.91h-2.86v39.13zM326.18 61.63h22.1v6.76h-12.55v15.14h9.88v6.7h-9.88v17.48h12.68v6.57h-22.23zM369.14 61.63h22.1v6.76H378.7v15.14h9.88v6.7h-9.88v17.48h12.67v6.57h-22.23zM189 147.63h13c9.23 0 15.41 3.12 15.41 13.52 0 6.43-2.67 10-7.61 10.79 6.18 1.17 9.1 5.59 9.1 13 0 10.07-4.94 15.34-14.69 15.34H189zm12.87 21.51c5.72 0 7.22-2.53 7.22-7.86 0-5.59-2.73-7-8.58-7h-1.95v14.82zm.39 24.38c5.85 0 7.48-2.73 7.48-8.65 0-6.24-2.08-9.1-7.8-9.1h-3.38v17.75zM224.84 147.63h22.1v6.76H234.4v15.14h9.88v6.7h-9.88v17.48h12.67v6.57h-22.23zM253.12 147.63h9.94l7.48 36.46 7.73-36.46H288l1 52.65h-7.15l-.78-36.6-7.47 36.6h-5.79l-7.6-36.73-.72 36.73h-7.21zM296.15 176h15.66v6h-15.66zM319.16 147.63h22.1v6.76h-12.55v15.14h9.88v6.7h-9.88v17.48h12.68v6.57h-22.23zM345.35 184.94l8.26-1.63c.26 6.24 1.75 10.27 6 10.27 3.05 0 4.35-2.08 4.35-4.94 0-4.55-2.34-7.08-5.78-10.07l-6.63-5.79c-3.77-3.25-6.11-6.89-6.11-12.74 0-8.32 5.2-13 13.58-13 9.88 0 12.68 6.63 13.2 14.3l-8.26 1.43c-.19-4.94-.91-8.64-5.13-8.64-2.86 0-4.42 2.14-4.42 4.94 0 3.57 1.49 5.52 4.29 7.93l6.56 5.78c4.29 3.71 7.87 8.32 7.87 15.28 0 7.6-5.33 12.93-13.2 12.93-9.64.01-14.19-5.59-14.58-16.05zM383.7 154.71h-8.38v-7.08h26.19v7.08h-8.19v45.57h-9.62zM412.56 147.63h10.27l10.53 52.65h-8.9l-2.08-12.16h-9.17l-2.14 12.16h-9zm8.78 34.37l-3.58-22.1-3.57 22.1zM438.3 147.63H451c10.53 0 16.51 3.38 16.51 14 0 6.31-1.56 10.73-6.5 12.74l7.34 25.94h-9.62l-6.3-24.12h-4.55v24.12h-9.58zm12.61 22.55c5.53 0 7.54-2.4 7.54-8.06 0-5.33-1.49-7.93-7-7.93h-3.57v16zM603.67 450.66c0-20.41-13.1-37-32.94-37-9.92 0-21.89 10.86-28.38 17.54-6.5-6.69-17.68-17.56-27.6-17.56-19.84 0-33.74 16.55-33.74 37a37.36 37.36 0 0010.53 26.14l50.85 50.95 50.78-50.89a37.39 37.39 0 0010.5-26.18z"/><path class="cls-2" d="M387.15 610.91h-.51a8.36 8.36 0 01-7.72-6.93l-25.83-150.45L314 526.08a8.35 8.35 0 01-15.61-2.78l-16.65-116.1-30.4 68.26a8.35 8.35 0 01-7.63 5H125.59a8.35 8.35 0 110-16.7h112.7l40-89.79a8.35 8.35 0 0115.89 2.22l17.13 119.71 38.59-71.54a8.35 8.35 0 0115.58 2.55l23.92 139.33 87.18-289.6a8.35 8.35 0 0115.52-1.22l45.9 95.05a8.35 8.35 0 11-15.05 7.25L486.37 302l-91.22 303a8.36 8.36 0 01-8 5.91z"/></g></svg>
